static/assets/smallElement/zero.svg

<svg width="128" height="146" viewBox="0 0 128 146" fill="none" xmlns="http://www.w3.org/2000/svg">
<g filter="url(#filter0_d)">
<path d="M80.1055 50.6C80.1055 45 77.3055 42.2 71.7055 42.2H56.3055C50.7055 42.2 47.9055 45 47.9055 50.6V95.4C47.9055 101 50.7055 103.8 56.3055 103.8H71.7055C77.3055 103.8 80.1055 101 80.1055 95.4V50.6ZM105.305 95.4C105.305 105.2 103.065 112.34 98.5855 116.82C94.1988 121.207 87.1055 123.4 77.3055 123.4H50.7055C40.9055 123.4 33.7655 121.207 29.2855 116.82C24.8988 112.34 22.7055 105.2 22.7055 95.4V50.6C22.7055 40.8 24.8988 33.7067 29.2855 29.32C33.7655 24.84 40.9055 22.6 50.7055 22.6H77.3055C87.1055 22.6 94.1988 24.84 98.5855 29.32C103.065 33.7067 105.305 40.8 105.305 50.6V95.4Z" fill="black"/>
<path d="M98.5855 116.82L97.1713 115.406L97.1713 115.406L98.5855 116.82ZM29.2855 116.82L27.8564 118.219L27.8712 118.234L27.8862 118.249L29.2855 116.82ZM29.2855 29.32L27.8713 27.9058L27.8713 27.9058L29.2855 29.32ZM98.5855 29.32L97.1565 30.7192L97.1712 30.7343L97.1862 30.749L98.5855 29.32ZM82.1055 50.6C82.1055 47.4917 81.327 44.7931 79.4197 42.8858C77.5123 40.9784 74.8138 40.2 71.7055 40.2V44.2C74.1972 44.2 75.6986 44.8216 76.5913 45.7142C77.4839 46.6068 78.1055 48.1083 78.1055 50.6H82.1055ZM71.7055 40.2H56.3055V44.2H71.7055V40.2ZM56.3055 40.2C53.1972 40.2 50.4986 40.9784 48.5913 42.8858C46.6839 44.7931 45.9055 47.4917 45.9055 50.6H49.9055C49.9055 48.1083 50.527 46.6068 51.4197 45.7142C52.3123 44.8216 53.8138 44.2 56.3055 44.2V40.2ZM45.9055 50.6V95.4H49.9055V50.6H45.9055ZM45.9055 95.4C45.9055 98.5083 46.6839 101.207 48.5913 103.114C50.4986 105.022 53.1972 105.8 56.3055 105.8V101.8C53.8138 101.8 52.3123 101.178 51.4197 100.286C50.527 99.3931 49.9055 97.8917 49.9055 95.4H45.9055ZM56.3055 105.8H71.7055V101.8H56.3055V105.8ZM71.7055 105.8C74.8138 105.8 77.5123 105.022 79.4197 103.114C81.327 101.207 82.1055 98.5083 82.1055 95.4H78.1055C78.1055 97.8917 77.4839 99.3931 76.5913 100.286C75.6986 101.178 74.1972 101.8 71.7055 101.8V105.8ZM82.1055 95.4V50.6H78.1055V95.4H82.1055ZM103.305 95.4C103.305 104.953 101.115 111.462 97.1713 115.406L99.9997 118.234C105.016 113.218 107.305 105.447 107.305 95.4H103.305ZM97.1713 115.406C93.3276 119.249 86.8725 121.4 77.3055 121.4V125.4C87.3384 125.4 95.07 123.164 99.9997 118.234L97.1713 115.406ZM77.3055 121.4H50.7055V125.4H77.3055V121.4ZM50.7055 121.4C41.1433 121.4 34.6273 119.251 30.6847 115.391L27.8862 118.249C32.9036 123.162 40.6676 125.4 50.7055 125.4V121.4ZM30.7145 115.421C26.854 111.478 24.7055 104.962 24.7055 95.4H20.7055C20.7055 105.438 22.9436 113.202 27.8564 118.219L30.7145 115.421ZM24.7055 95.4V50.6H20.7055V95.4H24.7055ZM24.7055 50.6C24.7055 41.0329 26.856 34.5779 30.6997 30.7342L27.8713 27.9058C22.9416 32.8355 20.7055 40.5671 20.7055 50.6H24.7055ZM30.6997 30.7342C34.6432 26.7907 41.1528 24.6 50.7055 24.6V20.6C40.6581 20.6 32.8878 22.8893 27.8713 27.9058L30.6997 30.7342ZM50.7055 24.6H77.3055V20.6H50.7055V24.6ZM77.3055 24.6C86.8629 24.6 93.3117 26.7927 97.1565 30.7192L100.014 27.9207C95.0859 22.8873 87.3481 20.6 77.3055 20.6V24.6ZM97.1862 30.749C101.113 34.5938 103.305 41.0426 103.305 50.6H107.305C107.305 40.5574 105.018 32.8196 99.9847 27.891L97.1862 30.749ZM103.305 50.6V95.4H107.305V50.6H103.305Z" fill="white"/>
</g>
<defs>
<filter id="filter0_d" x="0.705444" y="0.600006" width="126.6" height="144.8" filterUnits="userSpaceOnUse" color-interpolation-filters="sRGB">
<feFlood flood-opacity="0" result="BackgroundImageFix"/>
<feColorMatrix in="SourceAlpha" type="matrix" values="0 0 0 0 0 0 0 0 0 0 0 0 0 0 0 0 0 0 127 0"/>
<feOffset/>
<feGaussianBlur stdDeviation="10"/>
<feColorMatrix type="matrix" values="0 0 0 0 0.733333 0 0 0 0 0.52549 0 0 0 0 0.988235 0 0 0 1 0"/>
<feBlend mode="normal" in2="BackgroundImageFix" result="effect1_dropShadow"/>
<feBlend mode="normal" in="SourceGraphic" in2="effect1_dropShadow" result="shape"/>
</filter>
</defs>
</svg>

<?xml version="1.0" encoding="UTF-8" standalone="no"?>
<svg width="128" xmlns="http://www.w3.org/2000/svg" fill="none" viewBox="0 0 128 146" height="146">
 <g filter="url(#filter0_d)">
  <path d="m80.106 50.6c0-5.6-2.8-8.4-8.4-8.4h-15.4c-5.6 0-8.4 2.8-8.4 8.4v44.8c0 5.6 2.8 8.4 8.4 8.4h15.4c5.6 0 8.4-2.8 8.4-8.4v-44.8zm25.194 44.8c0 9.8-2.24 16.94-6.714 21.42-4.387 4.39-11.48 6.58-21.28 6.58h-26.6c-9.8 0-16.94-2.19-21.42-6.58-4.387-4.48-6.58-11.62-6.58-21.42v-44.8c0-9.8 2.193-16.893 6.58-21.28 4.48-4.48 11.62-6.72 21.42-6.72h26.6c9.8 0 16.893 2.24 21.28 6.72 4.474 4.387 6.714 11.48 6.714 21.28v44.8z" fill="#000"/>
  <path d="m98.586 116.82l-1.415-1.41 1.415 1.41zm-69.3 0l-1.43 1.4 0.015 0.01 0.015 0.02 1.4-1.43zm0-87.5l-1.415-1.414 1.415 1.414zm69.3 0l-1.43 1.399 0.015 0.015 0.015 0.015 1.4-1.429zm-16.48 21.28c0-3.108-0.779-5.807-2.686-7.714-1.908-1.908-4.606-2.686-7.714-2.686v4c2.491 0 3.993 0.622 4.885 1.514 0.893 0.893 1.515 2.394 1.515 4.886h4zm-10.4-10.4h-15.4v4h15.4v-4zm-15.4 0c-3.109 0-5.807 0.778-7.715 2.686-1.907 1.907-2.685 4.606-2.685 7.714h4c0-2.492 0.621-3.993 1.514-4.886 0.892-0.892 2.394-1.514 4.886-1.514v-4zm-10.4 10.4v44.8h4v-44.8h-4zm0 44.8c0 3.108 0.778 5.81 2.685 7.71 1.908 1.91 4.606 2.69 7.715 2.69v-4c-2.492 0-3.994-0.62-4.886-1.51-0.893-0.897-1.514-2.398-1.514-4.89h-4zm10.4 10.4h15.4v-4h-15.4v4zm15.4 0c3.108 0 5.806-0.78 7.714-2.69 1.907-1.9 2.686-4.602 2.686-7.71h-4c0 2.492-0.622 3.993-1.515 4.89-0.892 0.89-2.394 1.51-4.885 1.51v4zm10.4-10.4v-44.8h-4v44.8h4zm21.194 0c0 9.55-2.18 16.06-6.129 20.01l2.829 2.82c5.02-5.01 7.3-12.78 7.3-22.83h-4zm-6.129 20.01c-3.843 3.84-10.299 5.99-19.865 5.99v4c10.032 0 17.764-2.24 22.694-7.17l-2.829-2.82zm-19.865 5.99h-26.6v4h26.6v-4zm-26.6 0c-9.563 0-16.079-2.15-20.021-6.01l-2.799 2.86c5.018 4.91 12.782 7.15 22.82 7.15v-4zm-19.992-5.98c-3.86-3.94-6.008-10.46-6.008-20.02h-4c0 10.04 2.238 17.8 7.15 22.82l2.858-2.8zm-6.008-20.02v-44.8h-4v44.8h4zm0-44.8c0-9.567 2.15-16.022 5.994-19.866l-2.829-2.828c-4.929 4.93-7.165 12.661-7.165 22.694h4zm5.994-19.866c3.943-3.943 10.453-6.134 20.006-6.134v-4c-10.048 0-17.818 2.289-22.835 7.306l2.829 2.828zm20.006-6.134h26.6v-4h-26.6v4zm26.6 0c9.557 0 16.006 2.193 19.85 6.119l2.854-2.798c-4.924-5.034-12.662-7.321-22.704-7.321v4zm19.88 6.149c3.924 3.845 6.114 10.294 6.114 19.851h4c0-10.043-2.28-17.78-7.315-22.709l-2.799 2.858zm6.114 19.851v44.8h4v-44.8h-4z" fill="#fff"/>
 </g>
 <defs>
  <filter id="filter0_d" height="144.8" width="126.6" color-interpolation-filters="sRGB" y=".60001" x=".70544" filterUnits="userSpaceOnUse">
   <feFlood flood-opacity="0" result="BackgroundImageFix"/>
   <feColorMatrix values="0 0 0 0 0 0 0 0 0 0 0 0 0 0 0 0 0 0 127 0" type="matrix" in="SourceAlpha"/>
   <feOffset/>
   <feGaussianBlur stdDeviation="10"/>
   <feColorMatrix values="0 0 0 0 0.733333 0 0 0 0 0.52549 0 0 0 0 0.988235 0 0 0 1 0" type="matrix"/>
   <feBlend mode="normal" in2="BackgroundImageFix" result="effect1_dropShadow"/>
   <feBlend result="shape" mode="normal" in2="effect1_dropShadow" in="SourceGraphic"/>
  </filter>
 </defs>
</svg>
